X:71
T:Gan Ainm
R:Jig
D:Tape of concert ('You and Yours'), Newtownards, 1983
H:Sounds like a Scottish pipe tune turned into a jig.
Z:Bernie Stocks
M:6/8
K:D
DFA ~B2A | Adf a2g | fef Adf | afd e2f | AFA ~B2A | Adf a2g |
fga ecA |1 d3 dcB :|2 d3 d2g || fga d2e | fed a2f | efe ABc |
egf e2g |1 fga d2e | fed a2g | fga ecA | d3 d2e :|2 AFA ~B2A |
Adf a2g | fga ecA | d3 dcB || Adf fef | Adf a2g | fef Adf | e3 e2g |
Adf fef | afd B2g | fga ecA  |1 d3 dcB :|2 d3 dfg || afd Adf |
fed B2d | Adf afd | e3 e2f | Adf fef | afd B2g | fga ecA | d3 dcB :|
<end>
<start>
